X: 1
T: Violet's Waltz
C: Jane Rothfield
R: waltz
S: Fiddle Hell Online 2020-11-05
Z: 2020 John Chambers <jc:trillian.mit.edu>
M: 3/4
L: 1/8
K: G
DGA |:\
"G"B2 d2 dB | "D"A2 AG FD | "C"EF G2 AG | "G"BA G2 GA |
|[1 "G"B2 d2 dB | "D"A2AG FD | "C"EFGA BA | "G"G3 D GA :|
|[2 "G"B2 d2 Bd | "D"de ed(3BAG | "C"EF GA BA | "G"G4 D2 |]
|:\
"C"E2 G2 AG | "G"BA G2 (3GED | "C"EG ED (3B,A,G, | "G"A,B, B,2 (3B,CD |
"C"EG G2 (3GED | "Am"EG G2 AG | "D"F2FE FG |1 A4 AD :|2 "D"AD EF GA |]
